X:34
T:Boyd and Lisa's Visit
R:jig
C:Paul S. Cranford
O:Cape Breton Island
S:http://www.cranfordpub.com
D:currently unrecorded
B:currently unpublished in book form
Z:psc, (re-formatted,updated 9/17/04)
N:
H:                                                        copyrights Cranford Publications, SOCAN
L:1/8
M:6/8
Q:300
K:C
e2 c e2 c|dcA G2 F|EcG Aca|gec d2 c|
e2 c e2 c|dcA G2 F|EcG Aca|gec c2 z:|
|:g2 c a2 c|gc'e dcA|GcG Aca|gec d2 c|
[1g2 c a2 c|gc'e dcA|GcG Aca|gec c2 z:|
[2e2 c e2 c|dcA GEC|G,cG Aca|gec c2 z|]
